X: 9716
T: Deegan's Tweed Cap
R: jig
M: 6/8
K: Dmixolydian
|:A3 AG=c|AGE D2 E|=CDE Gd=c|A4 z G|
A3 AG=c|AGE D2 E|=CDE AGE|D6:|
|:{/d} d3 def|ed=c A3|GA=c GA=c|GA=c edc|
d3 def|ed=c A3|GA=c AGE|GED D3:|
|:DAA =cAA|BAB =cAG|DAA =cAA|BAG A2 G|
DAA dAA|=cAA deg|age d=cA|GED D3:|

